X:2898
T:Masurka
C:anon.
O:Norway
A:M\aalselv
R:Mazurka
Z:Transcribed by Frank Nordberg - http://www.musicaviva.com
F:http://abc.musicaviva.com/tunes/norway/masurka/masurka-1.abc
M:3/4
L:1/8
K:G
GBdBGB|eee2e2|GBdBGB|ddd2d2|FAcAFA|
ddd2d2|[1cBc2d2|c2BAB2:|[2fedcBA|G2G4||
bgdcBd|fed2d2|fedcBc|edB2B2|
bgdcBd|fed2d2|fedcBA|G2G4|]
W:
W:
W:  From Musica Viva - http://www.musicaviva.com
W:  the Internet center for free sheet music downloads.
